X:1
T:Brandford
T:E minor            Asahel Benham, 1783
T:Transcribed from Brownson's Select Harmony, 1783.
T:I
%%score [ 1 2 3 4 ]
L:1/8
Q:1/4=100
M:4/4
K:G
V:1 treble nm="Tr." snm="Tr."
V:2 treble nm="C." snm="C."
V:3 treble-8 nm="T." snm="T."
V:4 bass nm="B." snm="B."
V:1
 B4 B2 B2 | (B2 d2 B2) B2 | (B>cB>c d2) d2 | e8 | e4 g2 ge | (f3 d B3 e | d2) e2 f4- | f4 d4 |: %8
 B2 B2 B4 | B4 c2 B2 | B8 | d4 d2 cA | (B4 e>d ef | e2 E2 B2) BA |1 B4 d4 :|2 B8 |] %16
V:2
 E4 E2 B,2 | (G2 F>E D2) B,2 | (GA B4) F2 | E8 | E4 E2 G2 | (A4 G4 | F2) B,C D4- | D4 F4 |: %8
 E2 E2 E4 | G4 A>F ^D2 | G8 | A4 B2 AG | (F4 G>F ED | E6) ^D2 |1 E4 F4 :|2 E8 |] %16
V:3
 E4 G2 G2 | (d2 B2 d2) e2 | (e>fge f2) d2 | B8 | c4 B2 G2 | (d3 e d3 c | BA) G2 F4- | F4 A4 |: %8
 G2 E2 B4 | e4 e2 ^d2 | e8 | f4 g2 e2 | (d4 B>c B2 | B3 A G2) F2 |1 E4 A4 :|2 E8 |] %16
V:4
 E,4 E,2 E,2 | (G,2 B,4) E,2 | (G,F, E,2 B,2) B,,2 | E,8 | A,4 G,2 E,2 | (D,2 E,F, G,3) E, | %6
 B,,2 E,2 D,4- | D,4 D,4 |: E,2 E,2 E,4 | E,4 A,2 B,2 | E,8 | D,4 G,2 A,2 | %12
"__________________________________________________________________\nEdited by B. C. Johnston, 2018\n   1. Measure 10, Counter, last note changed from D to D#, like Tenor." (B,4 E,F, G,2 | %13
 E,3 F, E,2) B,,2 |1 E,4 D,4 :|2 E,8 |] %16

